epam-assets/icon-sources/18/file-upload.svg

<svg xmlns="http://www.w3.org/2000/svg" width="18" height="18" fill="none" viewBox="0 0 18 18">
  <path fill="#6C6F80" fill-rule="evenodd" d="M6.75 12.75h4.5v-4.5h3L9 3 3.75 8.25h3v4.5Zm-3 1.5h10.5v1.5H3.75v-1.5Z" clip-rule="evenodd"/>
</svg>

<svg width="18" height="18" viewBox="0 0 18 18" fill="none" xmlns="http://www.w3.org/2000/svg">
<g id="18/file-upload">
<path id="icon" fill-rule="evenodd" clip-rule="evenodd" d="M6.75 12.75H11.25V8.25H14.25L9 3L3.75 8.25H6.75V12.75ZM3.75 14.25H14.25V15.75H3.75V14.25Z" fill="#6C6F80"/>
</g>
</svg>
